packages/tokens/icons/puzzleMissing/size16Px.svg

<svg viewBox="0 0 16 16" fill="none" xmlns="http://www.w3.org/2000/svg" width="1em" height="1em"><mask id="path-1-inside-1_1748_8222" fill="currentColor"><path fill-rule="evenodd" clip-rule="evenodd" d="M11 3C10.4477 3 10 3.44771 10 4V7H9.5C8.67157 7 8 7.67157 8 8.5C8 9.32843 8.67157 10 9.5 10H10V13C10 13.5523 10.4477 14 11 14L14 14C14.5523 14 15 13.5523 15 13L15 4C15 3.44772 14.5523 3 14 3L11 3Z"/></mask><path d="M10 7V8C10.5523 8 11 7.55228 11 7L10 7ZM10 10H11C11 9.44772 10.5523 9 10 9L10 10ZM11 4V4V2C9.89543 2 9 2.89543 9 4L11 4ZM11 7V4L9 4V7L11 7ZM9.5 8H10V6H9.5V8ZM9 8.5C9 8.22386 9.22386 8 9.5 8V6C8.11929 6 7 7.11929 7 8.5H9ZM9.5 9C9.22386 9 9 8.77614 9 8.5H7C7 9.88071 8.11929 11 9.5 11L9.5 9ZM10 9H9.5L9.5 11H10L10 9ZM11 13V10H9V13H11ZM11 13H9C9 14.1046 9.89543 15 11 15V13ZM14 13L11 13V15L14 15V13ZM14 13V15C15.1046 15 16 14.1046 16 13H14ZM14 4L14 13H16L16 4L14 4ZM14 4L16 4C16 2.89543 15.1046 2 14 2V4ZM11 4L14 4V2L11 2V4Z" fill="currentColor" mask="url(#path-1-inside-1_1748_8222)"/><mask id="path-3-inside-2_1748_8222" fill="currentColor"><path fill-rule="evenodd" clip-rule="evenodd" d="M5 3C5.55228 3 6 3.44771 6 4V7H6.5C7.32843 7 8 7.67157 8 8.5C8 9.32843 7.32843 10 6.5 10H6V13C6 13.5523 5.55228 14 5 14L2 14C1.44772 14 1 13.5523 1 13L1 4C1 3.44772 1.44772 3 2 3L5 3Z"/></mask><path d="M6 7L6 8C5.44772 8 5 7.55228 5 7H6ZM6 10H5C5 9.44772 5.44772 9 6 9L6 10ZM5 4V4V2C6.10457 2 7 2.89543 7 4L5 4ZM5 7V4L7 4L7 7H5ZM6.5 8H6L6 6H6.5L6.5 8ZM7 8.5C7 8.22386 6.77614 8 6.5 8L6.5 6C7.88071 6 9 7.11929 9 8.5H7ZM6.5 9C6.77614 9 7 8.77614 7 8.5H9C9 9.88071 7.88071 11 6.5 11L6.5 9ZM6 9H6.5L6.5 11H6L6 9ZM5 13V10H7L7 13H5ZM5 13H7C7 14.1046 6.10457 15 5 15V13ZM2 13L5 13V15L2 15V13ZM2 13V15C0.895431 15 0 14.1046 0 13H2ZM2 4L2 13H0L0 4L2 4ZM2 4L0 4C0 2.89543 0.895431 2 2 2V4ZM5 4L2 4V2L5 2V4Z" fill="currentColor" mask="url(#path-3-inside-2_1748_8222)"/></svg>

<svg xmlns="http://www.w3.org/2000/svg" fill="none" viewBox="0 0 16 16" width="1em" height="1em"><mask id="iconsPuzzleMissingSize16Px__a" fill="#fff"><path fill-rule="evenodd" d="M11 3a1 1 0 0 0-1 1v3h-.5a1.5 1.5 0 1 0 0 3h.5v3a1 1 0 0 0 1 1h3a1 1 0 0 0 1-1V4a1 1 0 0 0-1-1h-3Z" clip-rule="evenodd"/></mask><path fill="currentColor" d="M10 7v1a1 1 0 0 0 1-1h-1Zm0 3h1a1 1 0 0 0-1-1v1Zm1-6V2a2 2 0 0 0-2 2h2Zm0 3V4H9v3h2ZM9.5 8h.5V6h-.5v2Zm-.5.5a.5.5 0 0 1 .5-.5V6A2.5 2.5 0 0 0 7 8.5h2Zm.5.5a.5.5 0 0 1-.5-.5H7A2.5 2.5 0 0 0 9.5 11V9Zm.5 0h-.5v2h.5V9Zm1 4v-3H9v3h2Zm0 0H9a2 2 0 0 0 2 2v-2Zm3 0h-3v2h3v-2Zm0 0v2a2 2 0 0 0 2-2h-2Zm0-9v9h2V4h-2Zm0 0h2a2 2 0 0 0-2-2v2Zm-3 0h3V2h-3v2Z" mask="url(#iconsPuzzleMissingSize16Px__a)"/><mask id="iconsPuzzleMissingSize16Px__b" fill="#fff"><path fill-rule="evenodd" d="M5 3a1 1 0 0 1 1 1v3h.5a1.5 1.5 0 1 1 0 3H6v3a1 1 0 0 1-1 1H2a1 1 0 0 1-1-1V4a1 1 0 0 1 1-1h3Z" clip-rule="evenodd"/></mask><path fill="currentColor" d="M6 7v1a1 1 0 0 1-1-1h1Zm0 3H5a1 1 0 0 1 1-1v1ZM5 4V2a2 2 0 0 1 2 2H5Zm0 3V4h2v3H5Zm1.5 1H6V6h.5v2Zm.5.5a.5.5 0 0 0-.5-.5V6A2.5 2.5 0 0 1 9 8.5H7Zm-.5.5a.5.5 0 0 0 .5-.5h2A2.5 2.5 0 0 1 6.5 11V9ZM6 9h.5v2H6V9Zm-1 4v-3h2v3H5Zm0 0h2a2 2 0 0 1-2 2v-2Zm-3 0h3v2H2v-2Zm0 0v2a2 2 0 0 1-2-2h2Zm0-9v9H0V4h2Zm0 0H0a2 2 0 0 1 2-2v2Zm3 0H2V2h3v2Z" mask="url(#iconsPuzzleMissingSize16Px__b)"/></svg>
